X:1
T:Queensborough
T:C Major            Jacob French, 1789
T:Transcribed from The New American Melody, 1789.
T:Isaac Watts, 1719 (Psalm 115, Part 2)           10 10. 10 10. 10 10.
%%score [ ( 1 2 ) 3 4 5 ]
L:1/8
Q:1/4=140
M:2/2
K:C
V:1 treble nm="Tr." snm="Tr."
V:2 treble 
V:3 treble nm="C." snm="C."
V:4 treble-8 nm="T." snm="T."
V:5 bass nm="B." snm="B."
V:1
"_1. Not to our names, thou on  –  ly    just  and    true,     Not    to   our     worth     –     less  names  is  glo  – ry    due;  Thy power and grace, thy truth and justice,  claim" G4 E2 F2 | %1
 G4 c4 | e2 dc d2 c2 | B8 | c4 G2 AB | (c2 B2 c2) d2 | e2 d2 c2 d2 | e8 | d4 B2 B2 | c6 e2 | %10
 d2 ef g2 c2 | B8 | %12
"_1. Im–mor–tal  honors  to    thy    sove –reign  name:        Shine through the earth from heav'n, thy  blest  a   –   bode  Nor let the heathens say,  And     where's  your   God?" c4 c2 e2 | %13
 d4 B4 | A2 B2 c4 | B4 c4- | c4 z4 | G4 c2 B2 | c6 B2 | (c2 e2) (e2 c2) | (f2 d2) (e2 c2) | d4 g4 | %22
 e2 f2 e2 d2 | d4 (c2 d2) | (e2 c2) (g2 f2) | e8 |] %26
V:2
 x8 | x8 | x8 | x8 | x8 | x8 | x8 | x8 | x8 | x8 | x8 | x8 | x8 | x8 | x8 | x8 | x8 | x8 | x8 | %19
 x8 | x8 | B4 x4 | x8 | x8 | x8 | x8 |] %26
V:3
"_2. Heav'n is thine higher court, there stands thy throne,  And through the lo      –     wer  worlds  thy will  is done;  Our God framed all this earth, these heav'ns he spread;" E4 C2 C2 | %1
 C4 E4 | G2 AG A2 G2 | G8 | E4 D2 D2 | (E3 F G2) F2 | E2 A2 G2 G2 | G8 | G4 G2 G2 | G6 A2 | %10
 A2 A2 G2 ^F2 | G8 | %12
"_2. But fools  adore the  gods  their hands have  made:          The knee – ling crowd, with looks de  –  vout,  be  –  hold  Their silver saviors, and their        saints   of       gold." G4 G2 G2 | %13
 G4 G4 | EF G2 A4 | G4 E4- | E4 z4 | E4 EF GF | E6 E2 | (E2 A2) G4 | A4 (A2 G2) | G4 G4 | %22
 c2 B2 A2 A2 | B4 (A2 F>A) | G4 G4 | G8 |] %26
V:4
"_3. Be heav'n and earth amazed! 'Tis  hard  to       say     Which  is  more  stu        –         pid,   or  their  gods  or   they:    O   Is–rael,  trust  the  Lord;  he  hears  and  sees," c4 G2 F2 | %1
 E4 G4 | c2 de f2 e2 | d8 | c4 B2 A2 | G6 AB | c2 f2 e2 d2 | c8 | d4 d2 d2 | e6 c2 | f2 e2 d2 c2 | %11
 d8 | %12
"_3. He knows thy sorrows and re – stores   thy  peace;          His  wor – ship   does   a   thou – sand   com – forts  yield,  He is thy help, and he  thy           hea  –  venly  shield." e4 e2 c2 | %13
 d4 d4 | c2 de (f2 e2) | d4 c4- | c4 z4 | c4 GF ED | C6 G2 | c4 e4 | f4 e4 | d4 d4 | c2 d2 e2 f2 | %23
 g4 f4 | e4 d4 | c8 |] %26
V:5
 C,4 C,2 C,2 | C,4 C,4 | C,2 F,E, D,2 E,F, | G,8 | A,4 G,2 F,2 | E,6 D,2 | C,2 D,2 E,F, G,2 | C,8 | %8
 [G,,G,]4 [G,,G,]2 [G,,G,]2 | [C,C]6 [A,,A,]2 | [D,D]2 [C,C]2 [B,,B,]2 [A,,A,]2 | [G,,G,]8 | %12
 [C,C]4 [C,C]2 C,2 | G,4 G,4 | A,2 G,2 F,4 | G,4 C,4- | C,4 z4 | C,4 C,D, E,F, | G,6 E,2 | %19
 [A,,A,]4 [C,C]4 | [D,D]4 [C,C]4 | [G,,G,]4 [G,,G,]4 | A,2 B,2 C2 D2 | %23
 [G,,G,]4 ([A,,A,]2 [B,,B,]2) | C4 [G,,G,]4 | C,8 |] %26

